X: 7
T: Floating Crowbar, The
C: Brendan McGlinchey
Z: CaliforniaMalcolm
S: https://thesession.org/tunes/457#setting53424
R: reel
M: 4/4
L: 1/8
K: Dmix
|: dB|AD ((3FED) AD ((3FED)|AD ((3FED) A2 GF | EG (3GGG AGEF | EFGF GABd |
AD ((3FED) AD ((3FED)|AD ((3FED) G2 FG | A2 AB cded | cAGE D2 :|
|: ((3EFG)|Add^c d2 ^cd|eaag ef ((3gfe)|A2 AB AG ((3EFG)|A2 GF EFGE|
Ddd^c d2 ^cd|eaag ef ((3gfe)|af ((3gfe) d2 ed | cAGE D2 :|

%-------------------- TUNE SEPARATOR --------------------%

